X:1
T:James Gibb editions
T:Now the labourer's task is o'er - Barnby
%%score [ ( 1 2 ) ( 3 4 ) ]
L:1/8
Q:1/4=80
M:4/4
K:Eb
V:1 treble nm="Midi_74"
V:2 treble 
V:3 bass nm="Midi_74"
V:4 bass 
V:1
"^Smoothly""^Joseph Barnby\n(1838-96)""^John Ellerton\n(1826-93)""^Hebron (77. 77. 88)"!mf!"^Now the labourer's task is o'er" G2 E2 C2 D2 | %1
 E3 D C4 || F2 =E2 F2 G2 | A2 A2 G4 ||"^cresc." G2 G2 c2 A2 | F2"^1" F2 B4 || %6
[M:4/4][Q:1/4=72]!f![Q:1/4=72] e2 d2 c2 !courtesy!_B2 |"^dim." A2 G2 !fermata!F4 || %8
"^rather slower\n"!p![Q:1/4=68] G2 E2!<(! B2 G2!<)! |!>(! e3!>)! d d2 c2 ||!pp! c2 B2 A2 G2 | %11
 F2"^1" E2 (E2 F2) | E8 || A4 G4 |] %14
V:2
 G2 E2 C2 C2 | C2 =B,2 C4 || C2 C2 C2 C2 | C2 D2 D4 || =E2 G2 F3 _E | E2 D2 E4 || %6
[M:4/4] E2 F2 =E2 G2 | F2 E2 D4 || B,2 B,2 E2 G2 | G3 F F2 E2 || C2 _D2 C2 B,2 | %11
 A,2 =A,2 (B,2 D2) | B,8 || E4 E4 |] %14
V:3
!mf! G,2 E,2 C,2 F,2 |"^1" G,2 F,2 E,4 || A,2 G,2 C2 B,2 | A,2 DC =B,4 ||"^cresc." C2 =E2 F2 C2 | %5
 B,2 B,2 B,4 || %6
[M:4/4]!f!"^1. Now the labourer's task is o'er,\nNow the battle-day is past;\nNow upon the farther shore \nLands the voyager at last.\nR. Father, in Thy gracious keeping\nLeave we now Thy servant sleeping.\n\n2. There the tears of earth are dried;\nThere its hidden things are clear;\nThere the work of life is tried\nBy a juster Judge than here.\nR." B,2 =B,2 C2 C2 | %7
"^dim." C2 C2 F,4 ||!p! E,2 G,2 B,2 B,2 | %9
 C2 =B,2 B,2"^3. There the penitents that turn\nTo the Cross their dying eyes\nAll the love of Jesus learn\nAt His feet in Paradise.\nR.\n\n4. 'Earth to earth, and dust to dust,'\nCalmly now the words we say;\nLeaving ''him'' to sleep in trust,\nTill the resurrection day.\nR." C2 || %10
!pp! E,2 E,2 E,2 E,2 | E,2"^rit." F,2 (G,2 !courtesy!_A,2) | G,8 || C4 B,4 |] %14
V:4
 G,2 E,2 C,2 A,,2 | G,,2 G,,2 C,4 || C,2 C,2 D,2 =E,2 | F,2 F,2 G,4 || C,2 B,2 A,2 F,2 | %5
 B,,2 A,2 G,4 ||[M:4/4] G,,2 G,,2 C,2 =E,2 | F,2 A,,2 !fermata!B,,4 || E,2 E,2 G,2 E,2 | %9
 C,2 G,2 A,2 A,2 || A,,2 G,,2 A,,2 B,,2 | C,2 C,2 B,,4 | E,8 || A,,4 E,4 |] %14

